build/Karasa-Jaga/scalable/apps/twitter-symbolic.svg

<svg height="16" width="16" xmlns="http://www.w3.org/2000/svg"><path d="m10.693359 2.3105469c-1.5861995 0-2.8730465 1.2868467-2.8730465 2.8730469 0 .2250497.0252187.4440169.0742187.6542968-2.38714-.1198398-4.5033244-1.2622501-5.9199218-3-.24724.4242-.3886719.9169596-.3886719 1.4433594 0 .9965201.5066016 1.8755641 1.2773437 2.390625-.4708337-.01491-.913562-.144265-1.3007812-.359375-.000273.01197 0 .0230462 0 .0351562 0 1.39167.9907597 2.5524363 2.3046875 2.8164063-.2409818.06559-.4958584.1015625-.7578125.1015625-.1850873 0-.3656099-.0173213-.5410156-.0507812.3655046 1.1410002 1.4267162 1.9710402 2.6835937 1.9941402-.983003.77042-2.2206839 1.228516-3.5664062 1.228516-.231847 0-.4608326-.012452-.6855469-.039062 1.271102.815041 2.7803039 1.291015 4.4023438 1.291015 5.2831102 0 8.1718752-4.3782177 8.1718752-8.173828 0-.1244597-.002313-.2478936-.007813-.3710938.56126-.4049447 1.048524-.9102981 1.433594-1.4863281-.51506.22848-1.069461.3817322-1.650391.4511719.5929-.3555301 1.049192-.9171509 1.263672-1.5878906-.55503.3292098-1.169928.5685356-1.824219.6972656-.52388-.5581796-1.269563-.9082031-2.095703-.9082031zm0 1.109375c.5128 0 .964337.214688 1.28711.5585937a1.1094499 1.1094499 0 0 0 .263672.2050782 1.1094499 1.1094499 0 0 0 .261718.6425781 1.1094499 1.1094499 0 0 0 -.046875.3671875c.004646.1040635.00586.2115501.00586.3222656 0 1.6163731-.634727 3.4230289-1.828125 4.777344-1.1933986 1.354314-2.8992639 2.287109-5.2343752 2.287109-.1034618 0-.1946092-.038569-.296875-.042969.2733331-.159128.5827144-.261209.8300781-.455078a1.1094499 1.1094499 0 0 0 -.6640625-1.982422c-.2180228-.004007-.3855869-.1241882-.5761719-.1992184a1.1094499 1.1094499 0 0 0 -.609375-1.8242187c-.2827438-.0568037-.4923078-.2477123-.7089844-.421875a1.1094499 1.1094499 0 0 0 .1035157-1.9042969c-.1658982-.1108641-.155665-.3570428-.2753907-.515625 1.3640638.9256956 2.8868822 1.6231898 4.6347657 1.7109375a1.1094499 1.1094499 0 0 0 1.1347656-1.359375c-.0294637-.1264413-.0449219-.2601679-.0449219-.4023437 0-.9862131.77746-1.7636719 1.7636715-1.7636719z" fill="#bebebe"/></svg>

<?xml version="1.0" encoding="UTF-8" standalone="no"?>
<!-- Created with Inkscape (http://www.inkscape.org/) -->

<svg
   xmlns:dc="http://purl.org/dc/elements/1.1/"
   xmlns:cc="http://creativecommons.org/ns#"
   xmlns:rdf="http://www.w3.org/1999/02/22-rdf-syntax-ns#"
   xmlns:svg="http://www.w3.org/2000/svg"
   xmlns="http://www.w3.org/2000/svg"
   xmlns:sodipodi="http://sodipodi.sourceforge.net/DTD/sodipodi-0.dtd"
   xmlns:inkscape="http://www.inkscape.org/namespaces/inkscape"
   version="1.1"
   width="16"
   height="16"
   id="svg7384"
   inkscape:version="0.92.2 (unknown)"
   sodipodi:docname="twitter-symbolic.svg">
  <sodipodi:namedview
     pagecolor="#ffffff"
     bordercolor="#666666"
     borderopacity="1"
     objecttolerance="10"
     gridtolerance="10"
     guidetolerance="10"
     inkscape:pageopacity="0"
     inkscape:pageshadow="2"
     inkscape:window-width="1366"
     inkscape:window-height="706"
     id="namedview7"
     showgrid="false"
     inkscape:zoom="14.75"
     inkscape:cx="0.3704429"
     inkscape:cy="6.1285078"
     inkscape:window-x="0"
     inkscape:window-y="0"
     inkscape:window-maximized="1"
     inkscape:current-layer="svg7384" />
  <title
     id="title9167">Gnome Symbolic Icon Theme</title>
  <defs
     id="defs11" />
  <metadata
     id="metadata90">
    <rdf:RDF>
      <cc:Work
         rdf:about="">
        <dc:format>image/svg+xml</dc:format>
        <dc:type
           rdf:resource="http://purl.org/dc/dcmitype/StillImage" />
        <dc:title>Gnome Symbolic Icon Theme</dc:title>
      </cc:Work>
    </rdf:RDF>
  </metadata>
  <path
     style="color:#bebebe;fill:#bebebe;fill-opacity:1;fill-rule:nonzero;stroke:none;stroke-width:1;marker:none;visibility:visible;display:inline;overflow:visible;enable-background:accumulate"
     d="M 10.693359 2.3105469 C 9.1071595 2.3105469 7.8203125 3.5973936 7.8203125 5.1835938 C 7.8203125 5.4086435 7.8455312 5.6276107 7.8945312 5.8378906 C 5.5073912 5.7180508 3.3912068 4.5756405 1.9746094 2.8378906 C 1.7273694 3.2620906 1.5859375 3.7548502 1.5859375 4.28125 C 1.5859375 5.2777701 2.0925391 6.1568141 2.8632812 6.671875 C 2.3924475 6.656965 1.9497192 6.52761 1.5625 6.3125 C 1.562227 6.32447 1.5625 6.3355462 1.5625 6.3476562 C 1.5625 7.7393262 2.5532597 8.9000925 3.8671875 9.1640625 C 3.6262057 9.2296525 3.3713291 9.265625 3.109375 9.265625 C 2.9242877 9.265625 2.7437651 9.2483037 2.5683594 9.2148438 C 2.933864 10.355844 3.9950756 11.185884 5.2519531 11.208984 C 4.2689501 11.979404 3.0312692 12.4375 1.6855469 12.4375 C 1.4536999 12.4375 1.2247143 12.425048 1 12.398438 C 2.271102 13.213479 3.7803039 13.689453 5.4023438 13.689453 C 10.685454 13.689453 13.574219 9.3112353 13.574219 5.515625 C 13.574219 5.3911653 13.571906 5.2677314 13.566406 5.1445312 C 14.127666 4.7395865 14.61493 4.2342331 15 3.6582031 C 14.48494 3.8866831 13.930539 4.0399353 13.349609 4.109375 C 13.942509 3.7538449 14.398801 3.1922241 14.613281 2.5214844 C 14.058251 2.8506942 13.443353 3.09002 12.789062 3.21875 C 12.265182 2.6605704 11.519499 2.3105469 10.693359 2.3105469 z M 10.693359 3.4199219 C 11.206159 3.4199219 11.657696 3.6346099 11.980469 3.9785156 A 1.1094499 1.1094499 0 0 0 12.244141 4.1835938 A 1.1094499 1.1094499 0 0 0 12.505859 4.8261719 A 1.1094499 1.1094499 0 0 0 12.458984 5.1933594 C 12.46363 5.2974229 12.464844 5.4049095 12.464844 5.515625 C 12.464844 7.1319981 11.830117 8.9386539 10.636719 10.292969 C 9.4433204 11.647283 7.7374551 12.580078 5.4023438 12.580078 C 5.298882 12.580078 5.2077346 12.541509 5.1054688 12.537109 C 5.3788019 12.377981 5.6881832 12.2759 5.9355469 12.082031 A 1.1094499 1.1094499 0 0 0 5.2714844 10.099609 C 5.0534616 10.095602 4.8858975 9.9754208 4.6953125 9.9003906 A 1.1094499 1.1094499 0 0 0 4.0859375 8.0761719 C 3.8031937 8.0193682 3.5936297 7.8284596 3.3769531 7.6542969 A 1.1094499 1.1094499 0 0 0 3.4804688 5.75 C 3.3145706 5.6391359 3.3248038 5.3929572 3.2050781 5.234375 C 4.5691419 6.1600706 6.0919603 6.8575648 7.8398438 6.9453125 A 1.1094499 1.1094499 0 0 0 8.9746094 5.5859375 C 8.9451457 5.4594962 8.9296875 5.3257696 8.9296875 5.1835938 C 8.9296875 4.1973807 9.7071475 3.4199219 10.693359 3.4199219 z "
     id="path16" />
</svg>
